src/assets/icons/copy.svg

<?xml version="1.0" encoding="UTF-8"?>
<svg width="24px" height="24px" viewBox="0 0 24 24" version="1.1" xmlns="http://www.w3.org/2000/svg" xmlns:xlink="http://www.w3.org/1999/xlink">
    <title>形状结合</title>
    <g id="扩展程序" stroke="none" stroke-width="1" fill="none" fill-rule="evenodd" opacity="0.5">
        <g id="资产" transform="translate(-223.000000, -128.000000)" fill="#6E7585" fill-rule="nonzero">
            <g id="编组-6" transform="translate(128.000000, 94.000000)">
                <g id="编组-4" transform="translate(0.000000, 34.000000)">
                    <g id="形状结合-2" transform="translate(95.000000, 0.000000)">
                        <path d="M12,9 C13.6568542,9 15,10.3431458 15,12 L15,16 C15,17.6568542 13.6568542,19 12,19 L8,19 C6.34314575,19 5,17.6568542 5,16 L5,12 C5,10.3431458 6.34314575,9 8,9 L12,9 Z M12,11 L8,11 C7.44771525,11 7,11.4477153 7,12 L7,12 L7,16 C7,16.5522847 7.44771525,17 8,17 L8,17 L12,17 C12.5522847,17 13,16.5522847 13,16 L13,16 L13,12 C13,11.4477153 12.5522847,11 12,11 L12,11 Z M16,5 C17.6568542,5 19,6.34314575 19,8 L19,12 C19,13.6568542 17.6568542,15 16,15 L16,13 C16.5522847,13 17,12.5522847 17,12 L17,12 L17,8 C17,7.44771525 16.5522847,7 16,7 L16,7 L12,7 C11.4477153,7 11,7.44771525 11,8 L11,8 L9,8 C9,6.34314575 10.3431458,5 12,5 L16,5 Z" id="形状结合备份"></path>
                    </g>
                </g>
            </g>
        </g>
    </g>
</svg>

<svg width="24" height="24" xmlns="http://www.w3.org/2000/svg"><path d="M12 9a3 3 0 0 1 3 3v4a3 3 0 0 1-3 3H8a3 3 0 0 1-3-3v-4a3 3 0 0 1 3-3h4zm0 2H8a1 1 0 0 0-1 1v4a1 1 0 0 0 1 1h4a1 1 0 0 0 1-1v-4a1 1 0 0 0-1-1zm4-6a3 3 0 0 1 3 3v4a3 3 0 0 1-3 3v-2a1 1 0 0 0 1-1V8a1 1 0 0 0-1-1h-4a1 1 0 0 0-1 1H9a3 3 0 0 1 3-3h4z" fill="#6E7585" fill-rule="nonzero" opacity=".5"/></svg>
